!!!!SEGMENT: pl-kozmzk--mzk-m-189_kedzierski-x-a--piesn-na-czesc-i-chwale-najswietszej-maryi-panny.krn
!!!cenid: 18xx:2958
!!!COM: Kędzierski, X. A.
!!!COM-rismID: pe41009820
!!!CDT: ~1800-~1899
!!!CNT:
!!!OTL: Pieśń na cześć i chwałę Najświętszej Maryi Panny
!!!PDT: 1847
!!!AGN: Secular
!!!SMS-siglum: PL-KOZmzk
!!!SMS-shelfmark: mzk/m/189
!!!SMS-shelfwork: W
!!!SMS-variant:
!!!SMS-altvar:
!!!NIFC-rismSourceID: 1001028651
!!!NIFC-islandoraID: pl-kozmzk:2904
!!!URL-pdf-islandora: https://repozytorium.nifc.pl/islandora/object/pl-kozmzk%3A2904/datastream/PDF/view
!!!URL-scan: https://polish.musicsources.pl/pl/lokalizacje/galeria/rekopisy/454 @EN{Scan on Polish Music Sources Website} @PL{Skany w portalu Dziedzictwo Muzyki Polskiej w otwartym dostępie}
!!!ONB-nifc:
!!!AIN: 1 empty
!!!key:
**kern	**kern	**text
*part1	*part1	*part1
*staff2	*staff1	*staff1
*Iempty	*Iempty	*
*I"	*I"	*
*>A	*>A	*
*clefF4	*clefG2	*
*k[b-e-]	*k[b-e-]	*
*B-:	*B-:	*
*M3/4	*M3/4	*
=1	=1	=1
*^	*	*
2F/	2BB-\	2b- 2f 2d/	Nad
4F/	4D\	4b- 4f 4B-/	wszy-
=2	=2	=2	=2
4F/	4BB-\	(4b- 4d/	-stkie
2F/	4E-X\	4a 4f 4c/)	.
.	4D\	4b- 4f 4d/	świę-
=3	=3	=3	=3
2F/	2AA\	2cc 2f/	-ta
4F 4FF/	4ryy	4cc 4a 4f/	dzie-
*v	*v	*	*
=4	=4	=4
(4A 4AA/	(4ee- 4cc 4f/	-wi-
4B- 4BB-/)	4dd 4b- 4f/)	.
8F 8FF;</	8.cc 8.a 8.f;/	-co,
8r	.	.
*	*Xtuplet	*
*	*rscale:4	*
.	48f/L	.
.	48g 48en/	.
.	48aJ 48e-X/	.
*	*rscale:1	*
=5	=5	=5
*^	*	*
2B-/	2BB-\	4b- 4f 4d/	Wiel-
.	.	4b- 4f 4d/	-bię
4F/	4BB-\	4b- 4d/	Cię
*v	*v	*	*
=6	=6	=6
4En 4GG/	4b- 4d-X/	Bo-
4F 4FF/	4a 4e-X 4c/	-ga
!	!LO:SIC:v:n=2:s=4dn	!
4F 4D/	4b- 4d-/	ro-
!!LO:LB:g=original
=7	=7	=7
(4BB-/	(4dd 4b- 4f/	-dzi-
4F\)	4cc 4f/)	.
8FF;</	8.cc 8.a 8.f;/	-co,
8r	.	.
*	*rscale:4	*
.	112cc#X/LL	.
.	112dd/	.
.	112a/	.
.	112b-/	.
.	112f#X/	.
.	112g/	.
.	112en/JJ	.
*	*rscale:1	*
=8!|:	=8!|:	=8!|:
*>B	*>B	*
4A 4AA/	8fL [8c/	Wszak
.	8fJ 8c/]	.
4A 4C/	4ee- 4f/	ka-
8B-L 8BB-/	8ddL 8f/	-żdy
8FJ 8FF/	8ccJ 8f/	po
=9	=9	=9
8B-L 8D\	8b-L 8f/	wszyst-
8AJ 8AA\	8ccJ 8f 8e-/	-kie
4B- 4BB-\	4dd 4f/	wie-
4B- 4D\	4b- 4f/	-ki,
=10	=10	=10
*^	*^	*
2c/	2E-\	4g/	2g\	do-
.	.	4cc/	.	-zna-
8B-/L	4F\	(8ddL 8f/	4ryy	-je
8A/J	.	8ccJ 8e-/)	.	.
*v	*v	*	*	*
*	*v	*v	*
!!LO:LB:g=original
=11	=11	=11
(8B-L 8D\	(8b-L 8f/	two-
8c 8C\)	8a 8e-/)	.
8B- 8BB-\	8b- 8f 8d/	-jéj
8F\J	8ddJ 8b- 8f/	o-
4FF/	4cc 4a 4e-/	-pie-
=12	=12	=12
2B- 2BB-\	2b- 2f 2d/	-ki.
4r	4r	.
=13:|!	=13:|!	=13:|!
*k[b-e-]	*k[b-e-]	*
*M4/4	*M4/4	*
*met(c)	*met(c)	*
*>C	*>C	*
*^	*	*
!	!	!LO:TX:a:t=Praeludium.	!
!	!	!LO:TX:t=P:problem=przekreślony obiegnik	!
2B-/	2BB-\	4.b-$sS 4.f/	.
.	.	8dd/	.
2e-/	4F\	(8cc\L	.
.	.	8gg\	.
.	4F#X\	8ff\)	.
.	.	[8ee-\J	.
=14	=14	=14	=14
2B-/	2G\	8ee-\L]	.
.	.	(8dd\	.
.	.	8cc#X\	.
.	.	8dd\J	.
2c/	2E-\	8ff\L	.
.	.	8ee-\	.
.	.	8g\	.
.	.	8ccn\J)	.
=15	=15	=15	=15
*	*	*^	*
4d/	1F	4f/	2f\	.
4d-X/	.	2b-/	.	.
2c/	.	.	2e-\	.
.	.	4a/	.	.
*	*	*v	*v	*
=16	=16	=16	=16
2B-/	2BB-\	2b- 2f 2d/	.
*v	*v	*	*
==	==	==
*-	*-	*-
!!!system-decoration: [s1,s2]
!!!RDF**kern: > = above
!!!RDF**kern: < = below
!!!ENC: Tomasz Grochalski
!!!END: 2021-08-13
!!!ENC: Kamil Watkowski
!!!END: 2021-09-09
!!!YEC: Copyright 2022 Narodowy Instytut Fryderyka Chopina (https://polishscores.org)
!!!YEM: Licence CC BY 4.0 (https://creativecommons.org/licenses/by/4.0)
